src/assets/fish.svg

<svg width="286" height="180" viewBox="0 0 286 180" xmlns="http://www.w3.org/2000/svg">
<path d="M36 69.3513L7.05014 91.0679L36 112.581V125L0 96.6327V85.3673L36 57V69.3513Z" fill="currentColor"/>
<path d="M142 62C133.75 57.1707 125.518 53.5577 117.304 51.1612C109.127 48.801 100.877 47.6209 92.5543 47.6209C84.2681 47.6209 76.0181 48.801 67.8043 51.1612C59.5905 53.5577 51.3224 57.1707 43 62V53.2854C51.6118 47.8025 59.9885 43.7175 68.1299 41.0305C76.3076 38.3435 84.449 37 92.5543 37C100.623 37 108.747 38.3435 116.924 41.0305C125.102 43.7175 133.461 47.8025 142 53.2854V62Z" fill="currentColor"/>
<path d="M99.3513 30L121.068 5.87512L142.581 30H155L126.633 0H115.367L87 30H99.3513Z" fill="currentColor"/>
<path d="M88.5687 152H76V162.646L84.9431 179.96L93 180L88.5687 162.646V152Z" fill="currentColor"/>
<path d="M49 77H62V92H49V77Z" fill="currentColor"/>
<path d="M142 120C133.75 124.829 125.518 128.442 117.304 130.839C109.127 133.199 100.877 134.379 92.5543 134.379C84.2681 134.379 76.0181 133.199 67.8043 130.839C59.5905 128.442 51.3224 124.829 43 120V128.715C51.6118 134.198 59.9885 138.282 68.1299 140.969C76.3076 143.657 84.449 145 92.5543 145C100.623 145 108.747 143.657 116.924 140.969C125.102 138.282 133.461 134.198 142 128.715V120Z" fill="currentColor"/>
<path d="M149 69.3513L177.95 91.0679L149 112.581V125L185 96.6327V85.3673L149 57V69.3513Z" fill="currentColor"/>
<path d="M230 69.3513L201.05 91.0679L230 112.581V125L194 96.6327V85.3673L230 57V69.3513Z" fill="currentColor"/>
<path d="M269.917 88.7024C275.119 90.062 279.1 92.4848 281.86 95.9709C284.62 99.4222 286 103.745 286 108.939C286 116.121 283.541 121.768 278.622 125.882C273.739 129.961 266.962 132 258.293 132C254.648 132 250.933 131.669 247.146 131.006C243.36 130.344 239.645 129.385 236 128.13V117.62C239.609 119.467 243.166 120.844 246.669 121.751C250.172 122.657 253.657 123.11 257.125 123.11C262.999 123.11 267.511 121.803 270.66 119.189C273.81 116.574 275.384 112.809 275.384 107.893C275.384 103.362 273.81 99.7708 270.66 97.1214C267.511 94.4371 263.247 93.0949 257.868 93.0949H249.694V84.4145H257.868C262.787 84.4145 266.626 83.3512 269.386 81.2247C272.146 79.0981 273.527 76.1349 273.527 72.3351C273.527 68.326 272.235 65.2582 269.652 63.1317C267.104 60.9703 263.459 59.8896 258.718 59.8896C255.568 59.8896 252.313 60.2382 248.951 60.9354C245.59 61.6327 242.069 62.6785 238.389 64.0729V54.3467C242.67 53.2311 246.474 52.3944 249.8 51.8367C253.162 51.2789 256.134 51 258.718 51C266.432 51 272.589 52.9174 277.189 56.7521C281.824 60.552 284.142 65.6068 284.142 71.9167C284.142 76.2046 282.921 79.7779 280.48 82.6365C278.074 85.4952 274.553 87.5171 269.917 88.7024Z" fill="currentColor"/>
</svg>

<svg xmlns="http://www.w3.org/2000/svg" width="286" height="180" viewBox="0 0 286 180"><path fill="currentColor" d="M36 69.351 7.05 91.068 36 112.58V125L0 96.633V85.367L36 57zM142 62q-12.375-7.244-24.696-10.839-12.265-3.54-24.75-3.54-12.429 0-24.75 3.54Q55.483 54.756 43 62v-8.715q12.918-8.223 25.13-12.254Q80.397 37 92.554 37q12.104 0 24.37 4.03Q129.191 45.063 142 53.286zM99.351 30l21.717-24.125L142.581 30H155L126.633 0h-11.266L87 30zM88.569 152H76v10.646l8.943 17.314L93 180l-4.431-17.354zM49 77h13v15H49zm93 43q-12.375 7.243-24.696 10.839-12.265 3.54-24.75 3.54-12.429 0-24.75-3.54Q55.483 127.243 43 120v8.715q12.918 8.224 25.13 12.254Q80.397 145 92.554 145q12.104 0 24.37-4.031T142 128.715zm7-50.649 28.95 21.717L149 112.58V125l36-28.367V85.367L149 57zm81 0-28.95 21.717L230 112.58V125l-36-28.367V85.367L230 57zm39.917 19.351q7.803 2.04 11.943 7.269 4.14 5.177 4.14 12.968 0 10.773-7.378 16.943Q271.297 132 258.293 132q-5.467 0-11.147-.994A72.6 72.6 0 0 1 236 128.13v-10.51q5.414 2.77 10.669 4.131 5.254 1.359 10.456 1.359 8.811 0 13.535-3.921 4.724-3.922 4.724-11.296 0-6.797-4.724-10.772-4.724-4.026-12.792-4.026h-8.174v-8.68h8.174q7.378 0 11.518-3.19t4.141-8.89q0-6.014-3.875-9.203-3.822-3.242-10.934-3.242-4.724 0-9.767 1.045-5.042 1.046-10.562 3.138v-9.726q6.422-1.674 11.411-2.51 5.042-.837 8.918-.837 11.571 0 18.471 5.752 6.953 5.7 6.953 15.165 0 6.431-3.662 10.72-3.609 4.287-10.563 6.065"/></svg>
